X: 283
T:Emma's no 1
M:4/4
L:1/8
R:Reel
Z:Richard Moon
K:G
~E3F ~G3A|B2Bd e3f|gfeg fedf|edB^c dBAF|~E3F ~G3A|B2Bd e3f|gfeg fede|fag
f e4:|
geBe geBe|gece gece|afdB ABde|afdB ABde|
geBe geBe|gece gece|afdB ABde|fagf e4:||
<end>
<start>
